icons/lines/login.svg

<svg xmlns="http://www.w3.org/2000/svg" width="24" height="24" viewBox="0 0 24 24" fill="none" stroke="currentColor" stroke-width="2" stroke-linecap="round" stroke-linejoin="round" >
  <path d="M8.8999 7.55999C9.2099 3.95999 11.0599 2.48999 15.1099 2.48999H15.2399C19.7099 2.48999 21.4999 4.27999 21.4999 8.74999V15.27C21.4999 19.74 19.7099 21.53 15.2399 21.53H15.1099C11.0899 21.53 9.2399 20.08 8.9099 16.54"/>
  <path d="M2 12H14.88"/>
  <path d="M12.6499 8.65002L15.9999 12L12.6499 15.35"/>
  </svg>

<svg xmlns="http://www.w3.org/2000/svg" width="24" height="24" viewBox="0 0 24 24" fill="none" stroke="currentColor" stroke-width="2" stroke-linecap="round" stroke-linejoin="round">
  <path d="M12.65 8.65 16 12l-3.35 3.35" />
  <path d="M2 12h12.88" />
  <path d="M8.9 7.56c.31-3.6 2.16-5.07 6.21-5.07h.13c4.47 0 6.26 1.79 6.26 6.26v6.52c0 4.47-1.79 6.26-6.26 6.26h-.13c-4.02 0-5.87-1.45-6.2-4.99" />
</svg>
